icons/circle/src/status/symbolic/starred-symbolic.svg

<?xml version="1.0" encoding="UTF-8"?>
<svg width="16" height="16" enable-background="new" version="1.1" xmlns="http://www.w3.org/2000/svg" xmlns:cc="http://creativecommons.org/ns#" xmlns:dc="http://purl.org/dc/elements/1.1/" xmlns:rdf="http://www.w3.org/1999/02/22-rdf-syntax-ns#">
 <metadata>
  <rdf:RDF>
   <cc:Work rdf:about="">
    <dc:format>image/svg+xml</dc:format>
    <dc:type rdf:resource="http://purl.org/dc/dcmitype/StillImage"/>
    <dc:title/>
   </cc:Work>
  </rdf:RDF>
 </metadata>
 <g fill="#363636">
  <path d="m7.959 1c-0.38233 0.016107-0.72199 0.24886-0.875 0.59961l-1.4883 3.4004h-3.8457c-0.91921 0.00104-1.3507 1.137-0.66406 1.748l2.9941 2.6523-1.5215 4.2637c-0.31475 0.88725 0.6585 1.6786 1.4629 1.1895l3.9785-2.4316 3.9785 2.4316a1.0006 1.0006 0 0 0 1.4629-1.1895l-1.5215-4.2637 2.9941-2.6523a1.0006 1.0006 0 0 0-0.66406-1.748h-3.8457l-1.4043-3.209-0.083984-0.19141a1.0006 1.0006 0 0 0-0.14844-0.24023c-0.0038394-0.0046036-0.0078018-0.0091436-0.011719-0.013672a1.0006 1.0006 0 0 0-0.20508-0.17773 1.0006 1.0006 0 0 0-0.0019531-0.0019532c-0.0012629-8.316e-4 -0.0026396-0.0011272-0.0039062-0.0019531-0.0024469-0.0015957-0.0053542-0.002331-0.0078125-0.0039063a1.0006 1.0006 0 0 0-0.23828-0.11328c-0.005895-0.0018481-0.011642-0.0041189-0.017578-0.0058594a1.0006 1.0006 0 0 0-0.28125-0.041016c-0.013672-2.803e-4 -0.027344-2.803e-4 -0.041016 0zm0.041016 1 1 2.2852 0.75 1.7148h4.5l-3.5 3.1016 1.75 4.8984-3.6289-2.2168-0.87109-0.5332-4.5 2.75 1.75-4.8984-3.5-3.1016h4.5l1.75-4z"/>
 </g>
</svg>

<svg width="16" height="16" xmlns="http://www.w3.org/2000/svg"><path d="M7.959 1a1 1 0 00-.875.6L5.596 5H1.75C.83 5.001.4 6.137 1.086 6.748L4.08 9.4l-1.521 4.264c-.315.887.658 1.679 1.462 1.19L8 12.422l3.978 2.432a1 1 0 001.463-1.19L11.92 9.4l2.994-2.652A1 1 0 0014.25 5h-3.846L9 1.791 8.916 1.6a1 1 0 00-.149-.24l-.011-.014a1 1 0 00-.205-.178 1 1 0 00-.002-.002l-.004-.002-.008-.004a1 1 0 00-.238-.113L8.28 1.04A1 1 0 008 1a1 1 0 00-.041 0zM8 2l1 2.285L9.75 6h4.5l-3.5 3.102L12.5 14l-3.629-2.217L8 11.25 3.5 14l1.75-4.898L1.75 6h4.5L8 2z" fill="#363636"/></svg>
